X:543
T: BIMBAUM DIE GLOCK IST KRANK
N: E1823
O: Europa, Mitteleuropa, Deutschland, Erfurt, Stotternheim
R: Kinder -, Schaukel -, Reiter - Lied
M: 2/4
L: 1/8
K: G
 | d2BG | ddB2 |
d2BG | ddB2 |
ddBG | d2Bz |
ddBG | d2Bz |
ddBG | d2B2 |
edcB | A2G2

@@@ Tune index: 5227
